!!!!SEGMENT: pl-kk--kk-i-3--043_anonim--kyrie.krn
!!!cenid: 15xx:653
!!!COM: Anonim
!!!COM-rismid: pe30004985
!!!CDT:
!!!CNT:
!!!OTL: Kyrie
!!!PDT:
!!!AGN:
!!!SMS-siglum: PL-Kk
!!!SMS-shelfmark: Kk.I.3
!!!SMS-shelfwork: 043 W
!!!SMS-variant:
!!!SMS-altvar:
!!!NIFC-rismid: 1001145544
!!!URL-scan: http://repozytorium.nifc.pl/skany/pl-kk-nut--i-3
!!!ONB-nifc: UWAGA: Discantus (s. 124r-125v, skan 0126-0128), Tenor (s. 93v-94r, skan 0266), Bassus (s. 120r-v, skan 0423-0424)
!!!key:
**kern	**text	**kern	**text	**kern	**text
*part3	*part3	*part2	*part2	*part1	*part1
*staff3	*staff3	*staff2	*staff2	*staff1	*staff1
*Ibass	*	*Itenor	*	*Ivox	*
*I"Basso	*	*I"Tenore	*	*I"Canto	*
*I'B.	*	*I'T.	*	*I'C.	*
*ICvox	*	*ICvox	*	*ICvox	*
*clefF4	*	*clefC4	*	*clefC3	*
*k[b-]	*	*k[b-]	*	*k[b-]	*
*F:	*	*F:	*	*F:	*
*M2/1	*	*M2/1	*	*M2/1	*
*met(C|)	*	*met(C|)	*	*met(C|)	*
*2\right	*	*2\right	*	*2\right	*
*4\right	*	*4\right	*	*4\right	*
=1-	=1-	=1-	=1-	=1-	=1-
1F	Kirie	0r	.	1c	Kirie
1D	.	.	.	2B-/	.
.	.	.	.	2.A/	.
=2-	=2-	=2-	=2-	=2-	=2-
*lig	*	*	*	*	*
1F	.	0r	.	.	.
.	.	.	.	4G/	.
.	.	.	.	1F	.
1G	.	.	.	.	.
.	.	.	.	2E/	.
*Xlig	*	*	*	*	*
=3-	=3-	=3-	=3-	=3-	=3-
1A	.	1F	Kirie	2F/	.
.	.	.	.	1f	.
1B-	.	1D	.	.	.
.	.	.	.	4e\	.
.	.	.	.	4d\	.
=4-	=4-	=4-	=4-	=4-	=4-
*	*	*lig	*	*	*
*	*	*	*	*custos:f	*
1A	.	1F	.	2c/	.
!	!	!	!	!LO:PB:g=original	!
.	.	.	.	1f	.
1G	.	1G	.	.	.
.	.	.	.	2e/	.
*	*	*Xlig	*	*	*
=5-	=5-	=5-	=5-	=5-	=5-
2F\	.	1A	.	2f/	.
*custos:E	*	*	*	*	*
1D	.	.	.	1F	.
!LO:LB:g=original	!	!	!	!	!
.	.	1B-	.	.	.
2E/	.	.	.	2G/	.
=6-	=6-	=6-	=6-	=6-	=6-
*	*	*lig	*	*	*
2.F/	.	1A	.	2.A/	.
4E/	.	.	.	4B-/	.
1C	.	1G	.	1c	.
*	*	*Xlig	*	*	*
=7-	=7-	=7-	=7-	=7-	=7-
*	*	*lig	*	*	*
2.D/	.	1F	.	2A/	.
.	.	.	.	2.d/	.
4C/	.	.	.	.	.
*	*	*col	*	*	*
1BB-	.	2.D/	.	.	.
.	.	.	.	4e/	.
.	.	.	.	1f\	.
*	*	*Xlig	*	*	*
.	.	4E/	.	.	.
*	*	*Xcol	*	*	*
=8-	=8-	=8-	=8-	=8-	=8-
*	*	*custos:G	*	*	*
2AA/	.	2F/	.	.	.
!	!	!LO:LB:g=original	!	!	!
2GG/	.	2.G/	.	4e/	.
.	.	.	.	4d/	.
2C/	.	.	.	2c/	.
.	.	4A/	.	.	.
*	*	*	*	*custos:e	*
2BB-/	.	2B-/	.	2d/	.
!	!	!	!	!LO:LB:g=original	!
=9-	=9-	=9-	=9-	=9-	=9-
2C/	.	2A/	.	2e/	.
2D/	.	2F/	.	1f	.
1C	ley-	1G	ley-	.	.
.	.	.	.	2e\	ley-
=10-	=10-	=10-	=10-	=10-	=10-
*custos:FF	*	*	*	*	*
0FF;	-son	0F;	-son	0f;	-son
=11-	=11-	=11-	=11-	=11-	=11-
*	*	*lig	*	*	*
0r	.	1F	Criste	1f	Cri-
.	.	1c	.	2e\	.
.	.	.	.	2f\	.
*	*	*Xlig	*	*	*
=12-	=12-	=12-	=12-	=12-	=12-
*	*	*lig	*	*	*
0r	.	1c	.	2g\	.
.	.	.	.	2c/	.
.	.	1B-	.	2d/	.
*	*	*	*	*custos:c	*
.	.	.	.	2e/	.
!	!	!	!	!LO:LB:g=original	!
*	*	*Xlig	*	*	*
=13-	=13-	=13-	=13-	=13-	=13-
0r	.	2.A/	.	2c/	-ste
.	.	.	.	4B-/	.
*	*	*custos:c	*	*	*
.	.	4B-/	.	4A/	.
!	!	!LO:LB:g=original	!	!	!
.	.	2c\	.	2G/	.
.	.	1d\	.	2F/	.
=14-	=14-	=14-	=14-	=14-	=14-
0r	.	.	.	2G/	.
.	.	1c	.	2.A/	.
.	.	.	.	4G/	.
*	*	*	*	*clefC4	*
.	.	2B-/	.	1F/	.
=15-	=15-	=15-	=15-	=15-	=15-
1.FF	Cri-	2.c\	.	.	.
.	.	.	.	4E/	.
.	.	4B-/	.	4D/	.
.	.	4A/	.	2C/	.
.	.	4G/	.	.	.
1.C/	.	1A\	.	1c\	.
=16-	=16-	=16-	=16-	=16-	=16-
.	-ste	.	.	.	.
.	.	4G/	.	4B-/	.
.	.	4F/	.	4A/	.
*	*	*	*	*custos:A	*
1.C	.	1.E	.	1G	.
!	!	!	!	!LO:LB:g=original	!
=17-	=17-	=17-	=17-	=17-	=17-
.	.	.	.	2A/	.
1.BB-	.	1F	.	1B-	.
.	.	2G/	.	2G/	.
=18-	=18-	=18-	=18-	=18-	=18-
1.AA	.	1C	.	1A	.
.	.	1r	.	2A/	.
1.BB-/	.	.	.	1F/	.
=19-	=19-	=19-	=19-	=19-	=19-
*	*	*custos:c	*	*	*
.	.	1r	.	.	.
!	!	!LO:LB:g=original	!	!	!
.	.	.	.	4E/	.
.	.	.	.	4D/	.
*	*	*clefC3	*	*	*
1.C	.	2.c/	.	2E/	.
.	.	.	.	2.A/	.
.	.	4d/	.	.	.
=20-	=20-	=20-	=20-	=20-	=20-
.	.	2e\	.	.	.
.	.	.	.	4G/	.
1.D	.	2f\	.	4F/	.
.	.	.	.	4E/	.
.	.	1d	.	1F	.
=21-	=21-	=21-	=21-	=21-	=21-
*custos:AA	*	*	*	*custos:g	*
1.C	.	2.g\	.	2G/	.
!LO:LB:g=original	!	!	!	!LO:LB:g=original	!
*	*	*	*	*clefC3	*
.	.	.	.	2.g\	.
.	.	4f\	.	.	.
.	.	4e\	.	.	.
.	.	4d\	.	4f\	.
1.AA/	.	2.c\	.	4e/	.
.	.	.	.	4d/	.
=22-	=22-	=22-	=22-	=22-	=22-
.	.	.	.	1c	.
.	.	4B-/	.	.	.
.	.	4A/	.	.	.
.	.	4G/	.	.	.
1.BB-	.	1F	.	1.d	.
=23-	=23-	=23-	=23-	=23-	=23-
*	*	*custos:A	*	*	*
.	.	2G/	.	.	.
!	!	!LO:LB:g=original	!	!	!
*	*	*clefC4	*	*	*
1.AA	.	2.A/	.	1.c	.
.	.	4G/	.	.	.
.	.	1F/	.	.	.
=24-	=24-	=24-	=24-	=24-	=24-
1GG	.	.	.	1B-	.
.	.	2E/	.	.	.
2FF/	.	0F	.	2.A/	.
1F\	.	.	.	.	.
.	.	.	.	4B-/	.
=25-	=25-	=25-	=25-	=25-	=25-
.	.	.	.	1c	.
4E/	.	.	.	.	.
4D/	.	.	.	.	.
2E/	.	2r	.	2r	.
2F/	.	2c\	.	2.f\	.
=26-	=26-	=26-	=26-	=26-	=26-
1C	.	2.c\	.	.	.
.	.	.	.	4d/	.
.	.	.	.	2e/	.
.	.	4B-/	.	.	.
*custos:C	*	*	*	*custos:c	*
2FF/	.	2A/	.	2d/	.
!LO:PB:g=original	!	!	!	!LO:LB:g=original	!
1C/	.	2G/	.	2c/	.
=27-	=27-	=27-	=27-	=27-	=27-
.	.	2A/	.	2r	.
4BB-/	.	2.B-/	.	2.d/	.
4AA/	.	.	.	.	.
2BB-/	.	.	.	.	.
.	.	4A/	.	4c/	.
2C/	.	4G/	.	2.c/	.
*	*	*custos:G	*	*	*
.	.	4F/	.	.	.
=28-	=28-	=28-	=28-	=28-	=28-
1GG	.	2.G/	.	.	.
.	.	.	.	4A/	.
.	.	.	.	2B-/	.
.	.	4F/	.	.	.
2AA/	.	2E/	.	2c/	.
1BB-/	.	2D/	.	4B-/	.
.	.	.	.	4A/	.
=29-	=29-	=29-	=29-	=29-	=29-
.	.	2E/	.	2G/	.
2AA/	.	2F/	.	2A/	.
1GG	.	1G	.	2.B-/	.
*	*	*	*	*custos:d	*
.	.	.	.	4c/	.
!	!	!	!	!LO:LB:g=original	!
=30-	=30-	=30-	=30-	=30-	=30-
2FF/	.	2.A/	.	2d/	.
1F	.	.	.	4c/	.
.	.	4B-/	.	4B-/	.
.	.	2c/	.	4A/	.
.	.	.	.	4G/	.
2E/	.	2G/	.	2.g\	.
=31-	=31-	=31-	=31-	=31-	=31-
1D	.	2A/	.	.	.
.	.	.	.	4f\	.
.	.	2B-/	.	1f	.
1C	.	1G	leij-	.	.
.	.	.	.	2e\	.
=32-	=32-	=32-	=32-	=32-	=32-
*custos:FF	*	*custos:F	*	*	*
00FF;	.	00F;	-son	2.f\	.
!LO:LB:g=original	!	!LO:LB:g=original	!	!	!
.	.	.	.	4e\	.
.	.	.	.	2d/	.
.	.	.	.	2c/	ley-
=33-	=33-	=33-	=33-	=33-	=33-
*	*	*	*	*custos:F	*
.	.	.	.	0c;	-son
!	!	!	!	!LO:LB:g=original	!
=34-	=34-	=34-	=34-	=34-	=34-
*lig	*	*	*	*	*
1FF	Kirie	0r	.	4F/	Kirie
.	.	.	.	4G/	.
.	.	.	.	4A/	.
.	.	.	.	4B-/	.
1C	.	.	.	4c/	.
.	.	.	.	4d/	.
.	.	.	.	2.c/	.
*Xlig	*	*	*	*	*
=35-	=35-	=35-	=35-	=35-	=35-
1C	.	0r	.	.	.
.	.	.	.	4B-/	.
.	.	.	.	4A/	.
.	.	.	.	4G/	.
0D	.	.	.	0F	.
=36-	=36-	=36-	=36-	=36-	=36-
*	*	*lig	*	*	*
.	.	1F	Kirie	.	.
1C	.	1c	.	1G	.
*	*	*Xlig	*	*	*
=37-	=37-	=37-	=37-	=37-	=37-
2.F\	.	1c	.	2F/	.
.	.	.	.	4D/	.
4E/	.	.	.	4E/	.
2D/	.	0d	.	4F/	.
.	.	.	.	4G/	.
*	*	*	*	*custos:G	*
2C/	.	.	.	1A/	.
!	!	!	!	!LO:LB:g=original	!
=38-	=38-	=38-	=38-	=38-	=38-
1BB-	.	.	.	.	.
.	.	.	.	2G/	.
*	*	*lig	*	*	*
1AA	.	1c	.	2A/	.
.	.	.	.	1c\	.
=39-	=39-	=39-	=39-	=39-	=39-
1r	.	1f	.	.	.
.	.	.	.	2B-/	.
*	*	*Xlig	*	*	*
2r	.	1e	.	1c	.
1C/	.	.	.	.	.
=40-	=40-	=40-	=40-	=40-	=40-
.	.	1d	.	2r	.
2BB-/	.	.	.	1f	.
1C	.	1c	.	.	.
.	.	.	.	2e/	.
=41-	=41-	=41-	=41-	=41-	=41-
*lig	*	*	*	*	*
1GG	.	1B-	.	2d/	.
.	.	.	.	4g\	.
.	.	.	.	4f\	.
*custos:GG	*	*	*	*	*
*	*	*lig	*	*	*
1AA	.	1c	.	4e\	.
!LO:LB:g=original	!	!	!	!	!
.	.	.	.	4d\	.
.	.	.	.	1c\	.
*Xlig	*	*	*	*	*
=42-	=42-	=42-	=42-	=42-	=42-
2GG/	.	1d	.	.	.
2G\	.	.	.	2B-/	.
*	*	*Xlig	*	*	*
2E/	.	1c	.	1c	.
2.F/	.	.	.	.	.
=43-	=43-	=43-	=43-	=43-	=43-
.	.	2.A/	.	2r	.
4E/	.	.	.	.	.
2D/	.	.	.	2f\	.
.	.	4B-/	.	.	.
*	*	*custos:d	*	*	*
2C/	.	2c/	.	2e\	.
*	*	*	*	*custos:g	*
!	!	!LO:LB:g=original	!	!	!
2BB-/	.	2d\	.	2d/	.
!	!	!	!	!LO:LB:g=original	!
=44-	=44-	=44-	=44-	=44-	=44-
0C	.	2G/	.	2.g\	.
.	.	2.c\	.	.	.
.	.	.	.	4f\	.
.	.	.	.	4e/	.
.	.	4B-/	.	4d/	.
.	.	4A/	.	2c/	.
.	.	4G/	.	.	.
=45-	=45-	=45-	=45-	=45-	=45-
2r	.	2F/	.	2d/	.
2C/	.	2E/	.	1c	.
2D/	.	1D	.	.	.
1F\	.	.	.	2B-/	.
=46-	=46-	=46-	=46-	=46-	=46-
.	.	1C	.	0c	.
2E/	.	.	.	.	.
*custos:c	*	*	*	*	*
2F/	.	2r	.	.	.
!LO:LB:g=original	!	!	!	!	!
*clefF3	*	*	*	*	*
2c\	.	2F/	.	.	.
=47-	=47-	=47-	=47-	=47-	=47-
2B-\	.	2G/	.	2r	.
2A\	.	2A/	.	2c/	.
1G	.	2.B-/	.	2d/	.
.	.	.	.	2e\	.
.	.	4A/	.	.	.
=48-	=48-	=48-	=48-	=48-	=48-
*	*	*custos:A	*	*	*
1F	.	2F/	.	2f\	.
!	!	!LO:LB:g=original	!	!	!
.	.	2A/	.	2e\	.
1r	.	2G/	.	2c/	.
.	.	1c\	.	2.e/	.
=49-	=49-	=49-	=49-	=49-	=49-
2r	.	.	.	.	.
*	*	*	*	*custos:g	*
.	.	.	.	4d/	.
!	!	!	!	!LO:PB:g=original	!
2G/	eley-	2d\	.	2.g\	.
2.G/	.	1B-	.	.	.
.	.	.	.	4f\	.
.	.	.	.	4e/	.
4F/	.	.	.	4d/	.
=50-	=50-	=50-	=50-	=50-	=50-
2E/	.	1c	.	2c/	.
2C/	.	.	.	2.g\	.
*	*	*lig	*	*	*
1D	-son	1F	ley-	.	.
.	.	.	.	4f\	.
.	.	.	.	1f\	.
=51-	=51-	=51-	=51-	=51-	=51-
1C	.	1G	.	.	.
.	.	.	.	2e\	.
*	*	*Xlig	*	*	*
0.FF;	.	0.F;	-son	0.A 0.c 0.f	.
=52-	=52-	=52-	=52-	=52-	=52-
.	.	.	.	.	.
=-	=-	=-	=-	=-	=-
*-	*-	*-	*-	*-	*-
!!!system-decoration: [(s1,s2,s3)]
!!!AIN: 1 bass 1 tenor 1 vox
!!!ENC: Berenika Jozajtis
!!!END: 2022-01-18
!!!ENC: Julita Ruszuk
!!!END: 2022-01-25
